X:1
T:Title
%%score { 1 | ( 2 3 ) }
L:1/8
Q:1/4=92
M:3/4
K:F
V:1 treble nm="Grand Piano"
V:2 bass 
V:3 bass 
V:1
 DD D2 F2 | [^CE]D CB, [G,A,]2 | [^CE]E [CE]2 [G,CG]2 | [DF]E DE F2 | DD D2 F2 | %5
w: ????~???? * * *|||||
 [^CE]D CB, [G,A,]2 | [^CE]E [CE]2 [G,CG]2 | [DF]E DE F2 | [DF][DF] [DF]2 [DB]2 | [FA]G FG A2 | %10
w: |||||
 [B,F_A]G FE D^C | [G,B,D][G,^CE] [F,A,D]4 | [A,DF]>[A,DF] [A,DF]2 [A,DF]2 | [G,EG]>[DF] [^CE]4 | %14
w: ||||
 [G,^CE]>E [G,CE]2 [G,CE]2 | F>E D4 | F>F F2 F2 | [G,EG]>[DF] [^CE]4 | [G,^CE]>E [G,CE]2 [G,CE]2 | %19
w: |||||
 F>E D4 | ^F>G A2 B2 | A>^F [^CG]4 | [^CE]>F G2 [A,CA]2 | [G,^CG]>[G,CE] [A,DF]4 | %24
w: |||||
 [_A,F_A]G FE[K:bass] D^C | [B,D]>[^CE] [F,A,D]4 |] %26
w: ||
V:2
 [D,F,A,][D,F,A,] [D,F,A,]2 [D,A,D]2 | z B, A,G, A,,2 | z ^C A,,2 A,,2 | [F,A,]4 [F,A,D]2 | %4
 [D,F,A,][D,F,A,] [D,F,A,]2 [D,A,D]2 | z B, A,G, A,,2 | z ^C A,,2 A,,2 | [F,A,]4 [F,A,D]2 | %8
 [B,,B,]2 [B,,B,]2 [B,,B,]2 | z[K:treble] E DE F2 | B,,[G,E] [F,D][E,^C] [G,B,]A, | G,,A,, D,4 | %12
 F,>F, F,2 F,2 | z z/ F,/ E,4 | A,,>^C A,,2 A,,2 | [D,A,D]>[D,A,^C] [D,F,A,]4 | %16
 [F,A,D]>[F,A,D] [F,A,D]2 [F,A,D]2 | z z/ F,/ E,4 | A,,>^C A,,2 A,,2 | [D,A,D]>[D,A,^C] [D,F,A,]4 | %20
 [D,^F,D]>[D,G,E] [D,A,D]2 [D,B,D]2 | [D,A,D]>[^F,D] [A,,A,]4 | z z/ ^C/ C2 A,,2 | A,,>A,, D,4 | %24
 z [G,E] [F,D][E,^C] [D,B,]E, | G,,>A,, D,4 |] %26
V:3
 x6 | A,,4 z2 | A,,2 z2 z2 | x6 | x6 | A,,4 z2 | A,,2 z2 z2 | x6 | x6 | [F,,F,]6[K:treble] | x6 | %11
 x6 | x6 | A,,6 | x6 | x6 | x6 | A,,6 | x6 | x6 | x6 | x6 | [A,,A,]4 z2 | x6 | B,,6 | x6 |] %26

